build/system/ArrowCrossOutline.svg

<svg xmlns="http://www.w3.org/2000/svg" fill="none" viewBox="0 0 24 24" focusable="false"><path d="M0 0H24V24H0z"/><path fill="#74767B" fill-rule="evenodd" d="M16.5171 16.6382C16.9437 16.6382 17.1959 16.2953 17.1959 15.934L17.1959 7.80939C17.2172 7.3922 16.8777 7.05279 16.4606 7.074L8.30761 7.074C7.96411 7.074 7.68536 7.37806 7.68536 7.74305C7.68536 8.10805 7.9567 8.45594 8.28332 8.45594L14.8948 8.45594L7.19038 16.1603C6.93654 16.4142 6.93654 16.8257 7.19038 17.0796C7.44422 17.3334 7.85578 17.3334 8.10962 17.0796L15.814 9.37518L15.814 15.934C15.7999 16.2876 16.0905 16.6382 16.5171 16.6382Z"/></svg>

<svg xmlns="http://www.w3.org/2000/svg" fill="none" viewBox="0 0 24 24" focusable="false"><path fill="#74767B" fill-rule="evenodd" d="M16.51 16.63c.43 0 .68-.34.68-.7V7.8a.7.7 0 0 0-.73-.73H8.3c-.34 0-.62.3-.62.67 0 .36.27.71.6.71h6.61l-7.7 7.71c-.26.25-.26.66 0 .91.25.26.66.26.91 0l7.71-7.7v6.56c-.02.35.28.7.7.7"/></svg>
